gtk/icons/scalable/actions/view-grid-symbolic.svg

<svg width='16' height='16'
     xmlns:gpa='https://www.gtk.org/grappa'
     gpa:version='1'
     gpa:keywords='view grid rectangle'
     gpa:state='0'>
  <path d='M 1 2 L 1 5 C 1 5.55228472, 1.44771528 6, 2 6 L 5 6 C 5.55228472 6, 6 5.55228472, 6 5 L 6 2 C 6 1.44771528, 5.55228472 1, 5 1 L 2 1 C 1.44771528 1, 1 1.44771528, 1 2 M 10 2 L 10 5 C 10 5.55228472, 10.4477148 6, 11 6 L 14 6 C 14.5522852 6, 15 5.55228472, 15 5 L 15 2 C 15 1.44771528, 14.5522852 1, 14 1 L 11 1 C 10.4477148 1, 10 1.44771528, 10 2 M 10 11 L 10 14 C 10 14.5522852, 10.4477148 15, 11 15 L 14 15 C 14.5522852 15, 15 14.5522852, 15 14 L 15 11 C 15 10.4477148, 14.5522852 10, 14 10 L 11 10 C 10.4477148 10, 10 10.4477148, 10 11 M 6 11 L 6 14 C 6 14.5522852, 5.55228472 15, 5 15 L 2 15 C 1.44771528 15, 1 14.5522852, 1 14 L 1 11 C 1 10.4477148, 1.44771528 10, 2 10 L 5 10 C 5.55228472 10, 6 10.4477148, 6 11'
        id='path0'
        stroke-width='2'
        stroke-linecap='round'
        stroke-linejoin='round'
        stroke='rgb(0,0,0)'
        fill='none'
        class='foreground-stroke transparent-fill'/>
</svg>

<svg xmlns="http://www.w3.org/2000/svg" width="16" height="16" viewBox="0 0 16 16"><path fill="none" d="M1 2v3a1 1 45 0 0 1 1h3a1 1 135 0 0 1-1V2a1 1 45 0 0-1-1H2a1 1 135 0 0-1 1M10 2v3a1 1 45 0 0 1 1h3a1 1 135 0 0 1-1V2a1 1 45 0 0-1-1h-3a1 1 135 0 0-1 1M10 11v3a1 1 45 0 0 1 1h3a1 1 135 0 0 1-1v-3a1 1 45 0 0-1-1h-3a1 1 135 0 0-1 1M6 11v3a1 1 135 0 1-1 1H2a1 1 45 0 1-1-1v-3a1 1 135 0 1 1-1h3a1 1 45 0 1 1 1" class="foreground-stroke transparent-fill" style="fill:#000;fill-opacity:0;stroke:#241f31;stroke-width:2;stroke-linecap:round;stroke-linejoin:round;paint-order:stroke markers fill"/></svg>
